svg/system/delete_2_fill.svg

<?xml version="1.0" encoding="UTF-8"?>
<svg width="24px" height="24px" viewBox="0 0 24 24" version="1.1" xmlns="http://www.w3.org/2000/svg" xmlns:xlink="http://www.w3.org/1999/xlink">
    <title>delete_2_fill</title>
    <g id="页面-1" stroke="none" stroke-width="1" fill="none" fill-rule="evenodd">
        <g id="System" transform="translate(-576.000000, -240.000000)">
            <g id="delete_2_fill" transform="translate(576.000000, 240.000000)">
                 <path d="M24,0 L24,24 L0,24 L0,0 L24,0 Z M12.5934901,23.257841 L12.5819402,23.2595131 L12.5108777,23.2950439 L12.4918791,23.2987469 L12.4918791,23.2987469 L12.4767152,23.2950439 L12.4056548,23.2595131 C12.3958229,23.2563662 12.3870493,23.2590235 12.3821421,23.2649074 L12.3780323,23.275831 L12.360941,23.7031097 L12.3658947,23.7234994 L12.3769048,23.7357139 L12.4804777,23.8096931 L12.4953491,23.8136134 L12.4953491,23.8136134 L12.5071152,23.8096931 L12.6106902,23.7357139 L12.6232938,23.7196733 L12.6232938,23.7196733 L12.6266527,23.7031097 L12.609561,23.275831 C12.6075724,23.2657013 12.6010112,23.2592993 12.5934901,23.257841 L12.5934901,23.257841 Z M12.8583906,23.1452862 L12.8445485,23.1473072 L12.6598443,23.2396597 L12.6498822,23.2499052 L12.6498822,23.2499052 L12.6471943,23.2611114 L12.6650943,23.6906389 L12.6699349,23.7034178 L12.6699349,23.7034178 L12.678386,23.7104931 L12.8793402,23.8032389 C12.8914285,23.8068999 12.9022333,23.8029875 12.9078286,23.7952264 L12.9118235,23.7811639 L12.8776777,23.1665331 C12.8752882,23.1545897 12.8674102,23.1470016 12.8583906,23.1452862 L12.8583906,23.1452862 Z M12.1430473,23.1473072 C12.1332178,23.1423925 12.1221763,23.1452606 12.1156365,23.1525954 L12.1099173,23.1665331 L12.0757714,23.7811639 C12.0751323,23.7926639 12.0828099,23.8018602 12.0926481,23.8045676 L12.108256,23.8032389 L12.3092106,23.7104931 L12.3186497,23.7024347 L12.3186497,23.7024347 L12.3225043,23.6906389 L12.340401,23.2611114 L12.337245,23.2485176 L12.337245,23.2485176 L12.3277531,23.2396597 L12.1430473,23.1473072 Z" id="MingCute" fill-rule="nonzero"></path>
                <path d="M14.2792,2 C15.1401,2 15.9044,2.55086 16.1766,3.36754 L16.7208,5 L20,5 C20.5523,5 21,5.44772 21,6 C21,6.55227 20.5523,6.99998 20,7 L19.9975,7.07125 L19.9975,7.07125 L19.1301,19.2137 C19.018,20.7837 17.7117,22 16.1378,22 L7.86224,22 C6.28832,22 4.982,20.7837 4.86986,19.2137 L4.00254,7.07125 C4.00083,7.04735 3.99998,7.02359 3.99996,7 C3.44769,6.99998 3,6.55227 3,6 C3,5.44772 3.44772,5 4,5 L7.27924,5 L7.82339,3.36754 C8.09562,2.55086 8.8599,2 9.72076,2 L14.2792,2 Z M9,10 C8.48715929,10 8.06449214,10.386027 8.00672766,10.8833761 L8,11 L8,17 C8,17.5523 8.44771,18 9,18 C9.51284071,18 9.93550786,17.613973 9.99327234,17.1166239 L10,17 L10,11 C10,10.4477 9.55229,10 9,10 Z M15,10 C14.4477,10 14,10.4477 14,11 L14,17 C14,17.5523 14.4477,18 15,18 C15.5523,18 16,17.5523 16,17 L16,11 C16,10.4477 15.5523,10 15,10 Z M14.2792,4 L9.72076,4 L9.38743,5 L14.6126,5 L14.2792,4 Z" id="形状" fill="#09244B"></path>
            </g>
        </g>
    </g>
</svg>

<svg xmlns="http://www.w3.org/2000/svg" width="24" height="24"><g fill="none" fill-rule="evenodd"><path d="M24 0v24H0V0h24ZM12.593 23.258l-.011.002-.071.035-.02.004-.014-.004-.071-.035c-.01-.004-.019-.001-.024.005l-.004.01-.017.428.005.02.01.013.104.074.015.004.012-.004.104-.074.012-.016.004-.017-.017-.427c-.002-.01-.009-.017-.017-.018Zm.265-.113-.013.002-.185.093-.01.01-.003.011.018.43.005.012.008.007.201.093c.012.004.023 0 .029-.008l.004-.014-.034-.614c-.003-.012-.01-.02-.02-.022Zm-.715.002a.023.023 0 0 0-.027.006l-.006.014-.034.614c0 .012.007.02.017.024l.015-.002.201-.093.01-.008.004-.011.017-.43-.003-.012-.01-.01-.184-.092Z"/><path fill="#09244B" d="M14.28 2a2 2 0 0 1 1.897 1.368L16.72 5H20a1 1 0 1 1 0 2l-.003.071-.867 12.143A3 3 0 0 1 16.138 22H7.862a3 3 0 0 1-2.992-2.786L4.003 7.07A1.01 1.01 0 0 1 4 7a1 1 0 0 1 0-2h3.28l.543-1.632A2 2 0 0 1 9.721 2h4.558ZM9 10a1 1 0 0 0-.993.883L8 11v6a1 1 0 0 0 1.993.117L10 17v-6a1 1 0 0 0-1-1Zm6 0a1 1 0 0 0-1 1v6a1 1 0 1 0 2 0v-6a1 1 0 0 0-1-1Zm-.72-6H9.72l-.333 1h5.226l-.334-1Z"/></g></svg>
